X: 47
T: Dancing in Kyle
M: 3/4
L: 1/4
Q: 1/4=144
K: D
F/G/ | ADD | dAA | Bcd | AFF/G/ | ADD | dAF | E3- | E2F/G/ |
ADD | dAA | Bcd | AFF/G/ | Add | cBc | d3- | d2d/e/ |
fdd | Add | fdd | Add | Bcd | AFD | E3- | E2F/G/ |
ADD | dAA | Bcd | AFF/G/ | Add | cBc | d3- | d2 |]
